svgs/regular/bowl-chopsticks.svg

<svg xmlns="http://www.w3.org/2000/svg" viewBox="0 0 512 512"><!--! Font Awesome Pro 6.2.0 by @fontawesome - https://fontawesome.com License - https://fontawesome.com/license (Commercial License) Copyright 2022 Fonticons, Inc. --><path d="M0 109.3C0 101.6 5.488 94.97 13.06 93.55L484.4 5.172C498.7 2.484 512 13.48 512 28.06C512 39.54 503.6 49.31 492.3 51.08L18.49 125.1C8.774 126.6 0 119.1 0 109.3V109.3zM0 159.7C0 150.1 6.97 143.8 15.74 143.5L487.6 128.8C500.1 128.3 512 139 512 152.4C512 165.4 501.4 175.1 488.4 175.1H16.25C7.275 175.1 0 168.7 0 159.7V159.7zM0 271.1C0 245.5 21.49 223.1 48 223.1H464C490.5 223.1 512 245.5 512 271.1C512 362.8 457.9 441 380.3 476.2C372.2 497.1 351.8 512 328 512H184C160.2 512 139.8 497.1 131.7 476.2C54.05 441 0 362.8 0 271.1V271.1zM151.5 432.5C163 437.6 171.1 447.1 176.5 458.9C177.7 461.1 180.7 464 184 464H328C331.3 464 334.3 461.1 335.5 458.9C340 447.1 348.1 437.6 360.5 432.5C421.6 404.8 464 343.3 464 272H48C48 343.3 90.39 404.8 151.5 432.5V432.5z"/></svg>

<svg xmlns="http://www.w3.org/2000/svg" viewBox="0 0 512 512"><!--! Font Awesome Pro 6.3.0 by @fontawesome - https://fontawesome.com License - https://fontawesome.com/license (Commercial License) Copyright 2023 Fonticons, Inc. --><path d="M18.5 125.1C8.8 126.6 0 119.1 0 109.3C0 101.6 5.5 95 13.1 93.6L484.4 5.2C498.7 2.5 512 13.5 512 28.1c0 11.5-8.4 21.2-19.7 23l-473.8 74zM0 159.7c0-8.8 7-16 15.7-16.2l471.9-14.7C501 128.3 512 139 512 152.4c0 13-10.6 23.6-23.6 23.6H16.2C7.3 176 0 168.7 0 159.7zM151.5 432.5c11.5 5.2 20.4 14.7 25 26.4c1.2 3.1 4.2 5.1 7.5 5.1H328c3.3 0 6.3-2 7.5-5.1c4.5-11.7 13.5-21.2 25-26.4C421.6 404.8 464 343.3 464 272H48c0 71.3 42.4 132.8 103.5 160.5zM0 272c0-26.5 21.5-48 48-48H464c26.5 0 48 21.5 48 48c0 90.8-54.1 169-131.7 204.2c-8.1 21-28.4 35.8-52.3 35.8H184c-23.8 0-44.2-14.9-52.3-35.8C54.1 441 0 362.8 0 272z"/></svg>
